teeny/solid/rand.svg

<svg width="15" height="15" viewBox="0 0 15 15" fill="none" xmlns="http://www.w3.org/2000/svg">
<path fill-rule="evenodd" clip-rule="evenodd" d="M3 1H8C10.2091 1 12 2.79086 12 5C12 6.43196 11.2475 7.68818 10.1165 8.39483C11.2358 8.97873 12 10.1501 12 11.5V14H11V11.5C11 10.1193 9.88071 9 8.5 9H4V14H3V1ZM4 8H8C9.65685 8 11 6.65685 11 5C11 3.34315 9.65685 2 8 2H4V8Z" fill="black"/>
</svg>

<svg viewBox="0 0 15 15" xmlns="http://www.w3.org/2000/svg"><path fill-rule="evenodd" d="M3 1h5c2.2 0 4 1.79 4 4 0 1.43-.76 2.68-1.89 3.39 1.11.58 1.88 1.75 1.88 3.1v2.5h-1v-2.5c0-1.39-1.12-2.5-2.5-2.5h-4.5v5h-1v-13Zm1 7h4c1.65 0 3-1.35 3-3 0-1.66-1.35-3-3-3H4v6Z"/></svg>
